X:11892
T:no name
R:jig
H:See also reel#612
N:Last part with variations
Z:id:hn-jig-296
M:6/8
K:D
~F3 FED|~F3 FEF|DFA dAF|A,/B,/CE A,CE|
~F3 FED|~F3 FEF|DFA dAF|1 A,CE D2E:|2 A,CE D2e||
fed edc|dcB AFA|fed edc|dfb a2g|
fed edc|dcB AFA|DFA dAF|A,CE D2e:|
